X: 9471
T: Darby The Driver
R: jig
M: 6/8
K: Adorian
|:G|E2 A ABc|B^AB G2 B|d^cd dBg|dBG ABG|
EAA AA/B/c|B^AB g2 B|dB/c/d gdB|BA^G A2:|
|:e|a^ga a=ge|a2 a a2 e|g>ag e>ge|dBG G2 e|
[1 a^ga a=ge|dd/e/f gaf|e/f/ge dBg|BA^G A2:|
[2 abg ae/f/g|fdf e2 d|e/f/ge dBg|BA^G A2||

